X:285
T:One Egg is an Oeuf
M:C|
C:© Paul Gitlitz 2008
K:G
"G"BdBG AG3|"C"_BB2B- BAG2|"G"=BdBG AG3|"F"=F4"C"E4|!
"G"BdBG AG3|"C"cc2c- "Am"cBA2|"D7"DF2c- cAF2|"G"G2GG G4:|!
|:"G"G,B,2D- DB,G,2|"C"CE2G- GEC2|"D7"DF2A- AFD2|"G"GFGA BdBA|!
"G"G,B,2D- DB,G,2|"C"CE2G- GEC2|"D7"DF2c- cAF2|"G"G2GG G4:|]
